src/assets/flags/gi.svg

<?xml version="1.0" encoding="UTF-8"?>
<svg xmlns="http://www.w3.org/2000/svg" xmlns:xlink="http://www.w3.org/1999/xlink" width="25px" height="19px" viewBox="0 0 25 19" version="1.1">
<g id="surface1">
<rect x="0" y="0" width="25" height="19" style="fill:rgb(85.490197%,0%,4.705882%);fill-opacity:1;stroke:none;"/>
<path style=" stroke:none;fill-rule:nonzero;fill:rgb(100%,100%,100%);fill-opacity:1;" d="M 0 0 L 25 0 L 25 12.730469 L 0 12.730469 Z M 0 0 "/>
<path style=" stroke:none;fill-rule:nonzero;fill:rgb(0%,0%,0.392157%);fill-opacity:1;" d="M 8.148438 8.632812 L 12.835938 8.632812 L 12.835938 11.898438 L 8.148438 11.898438 Z M 8.148438 8.632812 "/>
<path style="fill-rule:nonzero;fill:rgb(85.490197%,0%,4.705882%);fill-opacity:1;stroke-width:1;stroke-linecap:square;stroke-linejoin:miter;stroke:rgb(0%,0%,0%);stroke-opacity:1;stroke-miterlimit:4;" d="M 229.813333 153.894737 L 190.826667 153.894737 L 182.08 159.578947 L 182.08 165.578947 L 229.813333 165.578947 M 213.493333 128.578947 C 219.093333 128.578947 223.68 133.315789 223.68 139.105263 L 223.68 153.789474 L 230.986667 153.789474 L 230.986667 97.789474 L 190.72 97.789474 L 190.72 153.789474 L 203.306667 153.789474 L 203.306667 139.105263 C 203.306667 133.473684 207.786667 128.578947 213.493333 128.578947 Z M 213.493333 128.578947 " transform="matrix(0.0732422,0,0,0.0742188,-6.25,0)"/>
<path style=" stroke:none;fill-rule:nonzero;fill:rgb(0%,0%,0.392157%);fill-opacity:1;" d="M 8.726562 4.453125 L 10.089844 4.453125 L 10.089844 6.976562 L 8.726562 6.976562 Z M 8.726562 4.453125 "/>
<path style="fill-rule:nonzero;fill:rgb(85.490197%,0%,4.705882%);fill-opacity:1;stroke-width:1;stroke-linecap:square;stroke-linejoin:miter;stroke:rgb(0%,0%,0%);stroke-opacity:1;stroke-miterlimit:4;" d="M 222.986667 88.684211 L 206.826667 88.684211 L 206.826667 82.894737 L 194.88 82.894737 L 194.88 88.684211 L 186.88 88.684211 L 186.88 82.894737 L 181.973333 82.894737 L 181.973333 93.315789 L 222.986667 93.315789 M 186.773333 93.315789 L 221.813333 93.315789 L 221.813333 97.789474 L 186.773333 97.789474 Z M 200.8 47.578947 L 200.8 83 L 206.826667 83 L 206.826667 73.315789 C 206.826667 69.684211 209.28 66.684211 212.906667 66.526316 L 213.28 66.526316 C 217.013333 66.578947 220 69.578947 220.106667 73.315789 L 220.106667 83 L 225.813333 83 L 225.813333 47.578947 Z M 198.506667 42.789474 L 198.506667 47.578947 L 227.786667 47.578947 L 227.786667 42.789474 Z M 194.773333 33.684211 L 194.773333 42.789474 L 229.813333 42.789474 L 229.813333 33.684211 L 224.48 33.684211 L 224.48 38.421053 L 217.92 38.421053 L 217.92 33.684211 L 207.893333 33.684211 L 207.893333 38.421053 L 201.386667 38.421053 L 201.386667 33.684211 Z M 181.973333 159.578947 L 229.973333 159.578947 M 261.013333 156.789474 L 228.586667 156.789474 L 218.773333 161.473684 L 218.773333 168.473684 L 261.013333 168.473684 " transform="matrix(0.0732422,0,0,0.0742188,-6.25,0)"/>
<path style="fill:none;stroke-width:1;stroke-linecap:butt;stroke-linejoin:miter;stroke:rgb(0%,0%,0%);stroke-opacity:1;stroke-miterlimit:4;" d="M 218.773333 161.473684 L 261.973333 161.473684 " transform="matrix(0.0732422,0,0,0.0742188,-6.25,0)"/>
<path style=" stroke:none;fill-rule:nonzero;fill:rgb(0%,0%,0.392157%);fill-opacity:1;" d="M 16.851562 8.632812 L 12.164062 8.632812 L 12.164062 11.898438 L 16.851562 11.898438 Z M 16.851562 8.632812 "/>
<path style="fill-rule:nonzero;fill:rgb(85.490197%,0%,4.705882%);fill-opacity:1;stroke-width:1;stroke-linecap:square;stroke-linejoin:miter;stroke:rgb(0%,0%,0%);stroke-opacity:1;stroke-miterlimit:4;" d="M 229.813333 153.894737 L 190.826667 153.894737 L 182.08 159.578947 L 182.08 165.578947 L 229.813333 165.578947 M 213.493333 128.578947 C 219.093333 128.578947 223.68 133.315789 223.68 139.105263 L 223.68 153.789474 L 230.986667 153.789474 L 230.986667 97.789474 L 190.72 97.789474 L 190.72 153.789474 L 203.306667 153.789474 L 203.306667 139.105263 C 203.306667 133.473684 207.786667 128.578947 213.493333 128.578947 Z M 213.493333 128.578947 " transform="matrix(-0.0732422,0,0,0.0742188,31.25,0)"/>
<path style=" stroke:none;fill-rule:nonzero;fill:rgb(0%,0%,0.392157%);fill-opacity:1;" d="M 16.273438 4.453125 L 14.910156 4.453125 L 14.910156 6.976562 L 16.273438 6.976562 Z M 16.273438 4.453125 "/>
<path style="fill-rule:nonzero;fill:rgb(85.490197%,0%,4.705882%);fill-opacity:1;stroke-width:1;stroke-linecap:square;stroke-linejoin:miter;stroke:rgb(0%,0%,0%);stroke-opacity:1;stroke-miterlimit:4;" d="M 222.986667 88.684211 L 206.826667 88.684211 L 206.826667 82.894737 L 194.88 82.894737 L 194.88 88.684211 L 186.88 88.684211 L 186.88 82.894737 L 181.973333 82.894737 L 181.973333 93.315789 L 222.986667 93.315789 M 186.773333 93.315789 L 221.813333 93.315789 L 221.813333 97.789474 L 186.773333 97.789474 Z M 200.8 47.578947 L 200.8 83 L 206.826667 83 L 206.826667 73.315789 C 206.826667 69.684211 209.28 66.684211 212.906667 66.526316 L 213.28 66.526316 C 217.013333 66.578947 220 69.578947 220.106667 73.315789 L 220.106667 83 L 225.813333 83 L 225.813333 47.578947 Z M 198.506667 42.789474 L 198.506667 47.578947 L 227.786667 47.578947 L 227.786667 42.789474 Z M 194.773333 33.684211 L 194.773333 42.789474 L 229.813333 42.789474 L 229.813333 33.684211 L 224.48 33.684211 L 224.48 38.421053 L 217.92 38.421053 L 217.92 33.684211 L 207.893333 33.684211 L 207.893333 38.421053 L 201.386667 38.421053 L 201.386667 33.684211 Z M 181.973333 159.578947 L 229.973333 159.578947 M 261.013333 156.789474 L 228.586667 156.789474 L 218.773333 161.473684 L 218.773333 168.473684 L 261.013333 168.473684 " transform="matrix(-0.0732422,0,0,0.0742188,31.25,0)"/>
<path style="fill:none;stroke-width:1;stroke-linecap:butt;stroke-linejoin:miter;stroke:rgb(0%,0%,0%);stroke-opacity:1;stroke-miterlimit:4;" d="M 218.773333 161.473684 L 261.973333 161.473684 " transform="matrix(-0.0732422,0,0,0.0742188,31.25,0)"/>
<path style="fill-rule:nonzero;fill:rgb(97.254902%,84.705883%,5.490196%);fill-opacity:1;stroke-width:0.8;stroke-linecap:round;stroke-linejoin:miter;stroke:rgb(0%,0%,0%);stroke-opacity:1;stroke-miterlimit:4;" d="M 273.28 150 C 270.72 151.052632 268.213333 152.315789 265.813333 153.789474 C 262.666667 155.578947 259.733333 157.578947 256.906667 159.789474 C 255.84 160.473684 254.933333 161.263158 254.186667 162.210526 C 253.226667 163 252.213333 164.210526 252.426667 165.684211 C 252.426667 166.315789 253.226667 164.894737 253.813333 164.789474 C 254.72 164.263158 255.84 164.105263 256.906667 164.421053 C 258.293333 163.052632 259.786667 161.947368 261.28 161 C 265.386667 158.052632 269.706667 155.526316 274.293333 153.421053 Z M 273.28 150 " transform="matrix(0.0732422,0,0,0.0742188,-6.25,0)"/>
<path style="fill-rule:nonzero;fill:rgb(97.254902%,84.705883%,5.490196%);fill-opacity:1;stroke-width:1;stroke-linecap:round;stroke-linejoin:miter;stroke:rgb(0%,0%,0%);stroke-opacity:1;stroke-miterlimit:4;" d="M 260.373333 157.421053 L 260.373333 161.315789 M 262.773333 155.684211 L 262.773333 159.578947 M 265.173333 154.210526 L 265.173333 158 M 267.68 152.684211 L 267.68 156.684211 " transform="matrix(0.0732422,0,0,0.0742188,-6.25,0)"/>
<path style="fill-rule:nonzero;fill:rgb(97.254902%,84.705883%,5.490196%);fill-opacity:1;stroke-width:0.8;stroke-linecap:round;stroke-linejoin:miter;stroke:rgb(0%,0%,0%);stroke-opacity:1;stroke-miterlimit:4;" d="M 238.88 150.210526 L 237.706667 153.473684 C 243.2 155.631579 248.533333 158.315789 253.493333 161.473684 C 255.306667 162.578947 256.906667 163.842105 258.293333 165.421053 C 258.613333 166.210526 257.813333 166.894737 257.013333 166.578947 C 256.32 166.421053 255.52 166.105263 254.826667 166.578947 C 253.706667 167.105263 252.693333 168.789474 254.293333 169.315789 C 256.693333 170.894737 260.426667 170.210526 261.493333 167.473684 C 262.08 166.105263 262.186667 164.315789 261.013333 163.105263 C 258.986667 160.789474 256.213333 159.105263 253.6 157.421053 C 248.906667 154.578947 244 152.157895 238.88 150.210526 Z M 238.88 150.210526 " transform="matrix(0.0732422,0,0,0.0742188,-6.25,0)"/>
<path style="fill-rule:nonzero;fill:rgb(97.254902%,84.705883%,5.490196%);fill-opacity:1;stroke-width:1;stroke-linecap:round;stroke-linejoin:miter;stroke:rgb(0%,0%,0%);stroke-opacity:1;stroke-miterlimit:4;" d="M 253.973333 158 L 253.706667 161.421053 M 256.8 159.684211 L 256 163 M 259.786667 162 L 258.026667 164.578947 M 260.693333 168.210526 L 258.08 166.789474 M 261.493333 165.421053 L 258.506667 165.684211 M 257.706667 169.684211 L 257.493333 167.105263 M 256.48 166.789474 L 254.08 168.578947 M 244.693333 152.894737 L 244.693333 156 M 250.986667 156.315789 L 250.986667 159.789474 M 247.786667 154.578947 L 247.786667 157.894737 " transform="matrix(0.0732422,0,0,0.0742188,-6.25,0)"/>
<path style="fill-rule:nonzero;fill:rgb(97.254902%,84.705883%,5.490196%);fill-opacity:1;stroke-width:1;stroke-linecap:butt;stroke-linejoin:miter;stroke:rgb(0%,0%,0%);stroke-opacity:1;stroke-miterlimit:4;" d="M 235.786667 227.578947 L 235.786667 235.578947 L 240.8 235.578947 L 240.8 231.578947 L 247.68 231.578947 L 247.68 235.578947 L 253.12 235.578947 L 253.12 227.578947 Z M 235.786667 238.578947 L 235.786667 246.578947 L 253.013333 246.578947 L 253.013333 238.578947 L 247.573333 238.578947 L 247.573333 242.578947 L 240.693333 242.578947 L 240.693333 238.578947 Z M 235.786667 238.578947 " transform="matrix(0.0732422,0,0,0.0742188,-6.25,0)"/>
<path style="fill-rule:nonzero;fill:rgb(97.254902%,84.705883%,5.490196%);fill-opacity:1;stroke-width:1;stroke-linecap:butt;stroke-linejoin:miter;stroke:rgb(0%,0%,0%);stroke-opacity:1;stroke-miterlimit:4;" d="M 253.013333 193.684211 L 258.026667 193.684211 L 258.026667 251.684211 L 253.013333 251.684211 Z M 253.013333 193.684211 " transform="matrix(0.0732422,0,0,0.0742188,-6.25,0)"/>
<path style="fill-rule:nonzero;fill:rgb(97.254902%,84.705883%,5.490196%);fill-opacity:1;stroke-width:1;stroke-linecap:butt;stroke-linejoin:miter;stroke:rgb(0%,0%,0%);stroke-opacity:1;stroke-miterlimit:4;" d="M 253.013333 198.684211 L 258.026667 198.684211 L 258.026667 248.684211 L 253.013333 248.684211 Z M 255.573333 179.421053 L 266.186667 185.578947 L 255.573333 191.789474 L 244.906667 185.578947 Z M 241.28 183.421053 L 238.613333 183.421053 L 238.613333 187.789474 L 241.28 187.789474 L 255.573333 196.105263 L 269.813333 187.789474 L 272.586667 187.789474 L 272.586667 183.421053 L 269.813333 183.421053 L 255.573333 175.105263 Z M 241.28 183.421053 " transform="matrix(0.0732422,0,0,0.0742188,-6.25,0)"/>
<path style="fill-rule:nonzero;fill:rgb(97.254902%,84.705883%,5.490196%);fill-opacity:1;stroke-width:1;stroke-linecap:butt;stroke-linejoin:miter;stroke:rgb(0%,0%,0%);stroke-opacity:1;stroke-miterlimit:4;" d="M 255.306667 164.315789 C 252.906667 164.789474 251.2 166.947368 251.306667 169.421053 L 251.306667 180.578947 C 251.466667 183.052632 253.44 185 255.893333 185.210526 C 257.92 185.315789 259.84 184.210526 260.693333 182.421053 L 258.986667 181.421053 C 258.506667 182.578947 257.28 183.315789 256 183.210526 C 254.4 183.210526 253.12 181.578947 253.28 180.105263 L 253.28 168.894737 C 253.493333 167.421053 254.773333 166.263158 256.32 166.315789 C 256.906667 166.105263 257.813333 167 258.186667 166.315789 C 258.773333 165.421053 257.813333 164.789474 257.173333 164.315789 Z M 261.12 168.210526 C 260.586667 168.894737 259.946667 169.421053 259.2 169.789474 L 259.2 177.315789 L 261.226667 178.421053 L 261.226667 168.210526 Z M 261.12 168.210526 " transform="matrix(0.0732422,0,0,0.0742188,-6.25,0)"/>
<path style=" stroke:none;fill-rule:nonzero;fill:rgb(0%,0%,0.392157%);fill-opacity:1;" d="M 11.386719 2.851562 L 13.53125 2.851562 L 13.53125 6.796875 L 11.386719 6.796875 Z M 11.386719 2.851562 "/>
<path style="fill-rule:nonzero;fill:rgb(85.490197%,0%,4.705882%);fill-opacity:1;stroke-width:1;stroke-linecap:butt;stroke-linejoin:miter;stroke:rgb(0%,0%,0%);stroke-opacity:1;stroke-miterlimit:4;" d="M 238.826667 38.421053 L 238.826667 82.894737 L 248.106667 82.894737 L 248.106667 69.684211 C 248.106667 66.684211 250.08 62.421053 256 62.421053 C 261.92 62.421053 264 66.684211 264 69.684211 L 264 83 L 273.173333 83 L 273.173333 38.421053 Z M 254.613333 43.421053 L 257.386667 43.421053 L 257.386667 58.578947 L 254.613333 58.578947 Z M 246.293333 46.421053 L 249.28 46.421053 L 249.28 57.473684 L 246.293333 57.473684 Z M 262.826667 46.421053 L 265.706667 46.421053 L 265.706667 57.473684 L 262.72 57.473684 Z M 235.626667 32 L 235.626667 38.315789 L 276.373333 38.315789 L 276.373333 32 Z M 231.786667 24.578947 L 231.786667 32 L 280.32 32 L 280.32 24.578947 L 274.186667 24.578947 L 274.186667 28.578947 L 267.2 28.578947 L 267.2 24.578947 L 259.413333 24.578947 L 259.413333 28.578947 L 252.586667 28.578947 L 252.586667 24.578947 L 244.693333 24.578947 L 244.693333 28.578947 L 237.973333 28.578947 L 237.973333 24.578947 Z M 222.826667 97.789474 L 222.826667 102.421053 L 289.28 102.421053 L 289.28 97.789474 Z M 222.826667 97.789474 " transform="matrix(0.0732422,0,0,0.0742188,-6.25,0)"/>
<path style="fill-rule:nonzero;fill:rgb(85.490197%,0%,4.705882%);fill-opacity:1;stroke-width:1;stroke-linecap:butt;stroke-linejoin:miter;stroke:rgb(0%,0%,0%);stroke-opacity:1;stroke-miterlimit:4;" d="M 220 82.894737 L 220 97.894737 L 292 97.894737 L 292 82.894737 L 285.226667 82.894737 L 285.226667 88.684211 L 276 88.684211 L 276 82.894737 L 263.786667 82.894737 L 263.786667 88.684211 L 248 88.684211 L 248 82.894737 L 235.786667 82.894737 L 235.786667 88.684211 L 226.773333 88.684211 L 226.773333 82.894737 Z M 220 82.894737 " transform="matrix(0.0732422,0,0,0.0742188,-6.25,0)"/>
<path style="fill-rule:nonzero;fill:rgb(85.490197%,0%,4.705882%);fill-opacity:1;stroke-width:1;stroke-linecap:butt;stroke-linejoin:round;stroke:rgb(0%,0%,0%);stroke-opacity:1;stroke-miterlimit:4;" d="M 228.693333 102.421053 L 228.693333 156.789474 L 241.493333 156.789474 L 241.493333 136.421053 C 241.493333 126.894737 247.893333 122.421053 256 122.421053 C 263.786667 122.421053 270.506667 126.894737 270.506667 136.421053 L 270.506667 156.789474 L 283.306667 156.789474 L 283.306667 102.421053 Z M 228.693333 102.421053 " transform="matrix(0.0732422,0,0,0.0742188,-6.25,0)"/>
</g>
</svg>

<svg xmlns="http://www.w3.org/2000/svg" xmlns:xlink="http://www.w3.org/1999/xlink" id="flag-icons-gi" viewBox="0 0 640 480">
  <path fill="#da000c" d="M0 0h640v480H0z"/>
  <path fill="#fff" d="M0 0h640v321.6H0z"/>
  <g stroke="#000" transform="translate(-160)scale(1.875)">
    <g id="gi-a" fill="#da000c" stroke-linecap="square">
      <path fill="#000001" stroke="none" d="M196.6 116.3h64v44h-64z"/>
      <path d="M229.8 153.9h-39l-8.7 5.7v6h47.7m-16.3-37c5.6 0 10.2 4.7 10.2 10.5v14.7h7.3v-56h-40.3v56h12.6v-14.7c0-5.6 4.5-10.5 10.2-10.5z"/>
      <path fill="#000001" stroke="none" d="M204.5 60h18.6v34h-18.6z"/>
      <path d="M223 88.7h-16.2v-5.8h-11.9v5.8h-8v-5.8H182v10.4h41m-36.2 0h35v4.5h-35zm14-45.7V83h6v-9.7c0-3.6 2.5-6.6 6.1-6.8h.4a7 7 0 0 1 6.8 6.8V83h5.7V47.6zm-2.3-4.8v4.8h29.3v-4.8zm-3.7-9.1v9.1h35v-9.1h-5.3v4.7h-6.6v-4.7h-10v4.7h-6.5v-4.7zM182 159.6h48m31-2.8h-32.4l-9.8 4.7v7H261"/>
      <path stroke-linecap="butt" d="M218.8 161.5H262"/>
    </g>
    <use xlink:href="#gi-a" width="100%" height="100%" transform="matrix(-1 0 0 1 512 0)"/>
    <g fill="#f8d80e">
      <g stroke-linecap="round">
        <path stroke-width=".8" d="M273.3 150q-3.9 1.6-7.5 3.8a72 72 0 0 0-8.9 6q-1.6 1-2.7 2.4c-1 .8-2 2-1.8 3.5 0 .6.8-.8 1.4-.9a4 4 0 0 1 3.1-.4q2.1-2 4.4-3.4a77 77 0 0 1 13-7.6z"/>
        <path d="M260.4 157.4v3.9m2.4-5.6v3.9m2.4-5.4v3.8m2.5-5.3v4"/>
        <path stroke-width=".8" d="m238.9 150.2-1.2 3.3a87 87 0 0 1 15.8 8q2.7 1.6 4.8 3.9c.3.8-.5 1.5-1.3 1.2-.7-.2-1.5-.5-2.2 0-1.1.5-2.1 2.2-.5 2.7 2.4 1.6 6.1.9 7.2-1.8.6-1.4.7-3.2-.5-4.4-2-2.3-4.8-4-7.4-5.7a89 89 0 0 0-14.7-7.2z"/>
        <path d="m254 158-.3 3.4m3.1-1.7-.8 3.3m3.8-1-1.8 2.6m2.7 3.6-2.6-1.4m3.4-1.4-3 .3m-.8 4-.2-2.6m-1-.3-2.4 1.8m-9.4-15.7v3.1m6.3.3v3.5m-3.2-5.2v3.3"/>
      </g>
      <path d="M235.8 227.6v8h5v-4h6.9v4h5.4v-8zm0 11v8H253v-8h-5.4v4h-6.9v-4z"/>
      <path d="M253 193.7h5v58h-5z"/>
      <path d="M253 198.7h5v50h-5zm2.6-19.3 10.6 6.2-10.6 6.2-10.7-6.2zm-14.3 4h-2.7v4.4h2.7l14.3 8.3 14.2-8.3h2.8v-4.4h-2.8l-14.2-8.3z"/>
      <path d="M255.3 164.3a5 5 0 0 0-4 5.1v11.2a5 5 0 0 0 4.6 4.6 5 5 0 0 0 4.8-2.8l-1.7-1a3 3 0 0 1-3 1.8c-1.6 0-2.9-1.6-2.7-3.1v-11.2a3 3 0 0 1 3-2.6c.6-.2 1.5.7 1.9 0 .6-.9-.4-1.5-1-2zm5.8 3.9a5 5 0 0 1-1.9 1.6v7.5l2 1.1v-10.2z"/>
    </g>
    <g fill="#da000c">
      <path fill="#000001" stroke="none" d="M240.8 38.4h29.3v53.2h-29.3z"/>
      <path d="M238.8 38.4v44.5h9.3V69.7c0-3 2-7.3 7.9-7.3s8 4.3 8 7.3V83h9.2V38.4zm15.8 5h2.8v15.2h-2.8zm-8.3 3h3v11.1h-3zm16.5 0h2.9v11.1h-3zM235.6 32v6.3h40.8V32zm-3.8-7.4V32h48.5v-7.4h-6.1v4h-7v-4h-7.8v4h-6.8v-4h-7.9v4H238v-4zm-9 73.2v4.6h66.5v-4.6z"/>
      <path d="M220 82.9v15h72v-15h-6.8v5.8H276v-5.8h-12.2v5.8H248v-5.8h-12.2v5.8h-9v-5.8z"/>
      <path stroke-linejoin="round" d="M228.7 102.4v54.4h12.8v-20.4c0-9.5 6.4-14 14.5-14 7.8 0 14.5 4.5 14.5 14v20.4h12.8v-54.4z"/>
    </g>
  </g>
</svg>
